X: 42684
T: Whistler At The Wake, The
R: jig
M: 6/8
K: Dmajor
|:E|~F2A ~A2d|{A}B2d efg|fed ABd|AFE EDE|
{E}~F3 AFA|BAB efg|(3.g.f.e d ABd|AFE D2:|
|:e|(3.g.f.e d ABd|AFE EEF|DEF (3.A.c.A F|ABF A2e|
(3.g.f.e d ABd|AFE E2g|(3.g.f.e d ABd|AFE D2:|

